outputs/icons/social/add_person_round.svg

<svg xmlns="http://www.w3.org/2000/svg" width="1200" height="1200" fill="none"><g clip-path="url(#a)"><path fill="#000" d="M750 600c110.5 0 200-89.5 200-200s-89.5-200-200-200-200 89.5-200 200 89.5 200 200 200M300 500V400c0-27.5-22.5-50-50-50s-50 22.5-50 50v100H100c-27.5 0-50 22.5-50 50s22.5 50 50 50h100v100c0 27.5 22.5 50 50 50s50-22.5 50-50V600h100c27.5 0 50-22.5 50-50s-22.5-50-50-50zm450 200c-133.5 0-400 67-400 200v50c0 27.5 22.5 50 50 50h700c27.5 0 50-22.5 50-50v-50c0-133-266.5-200-400-200"/></g><defs><clipPath id="a"><path fill="#fff" d="M0 0h1200v1200H0z"/></clipPath></defs></svg>

<svg width="1200" height="1200" viewBox="0 0 1200 1200" fill="none" xmlns="http://www.w3.org/2000/svg"><g clip-path="url(#clip0_231_5359)"><path d="M750 600C860.5 600 950 510.5 950 400C950 289.5 860.5 200 750 200C639.5 200 550 289.5 550 400C550 510.5 639.5 600 750 600ZM300 500V400C300 372.5 277.5 350 250 350C222.5 350 200 372.5 200 400V500H100C72.5 500 50 522.5 50 550C50 577.5 72.5 600 100 600H200V700C200 727.5 222.5 750 250 750C277.5 750 300 727.5 300 700V600H400C427.5 600 450 577.5 450 550C450 522.5 427.5 500 400 500H300ZM750 700C616.5 700 350 767 350 900V950C350 977.5 372.5 1000 400 1000H1100C1127.5 1000 1150 977.5 1150 950V900C1150 767 883.5 700 750 700Z" fill="black"/></g><defs><clipPath id="clip0_231_5359"><path width="24" fill="white" d="M0 0H1200V1200H0V0z"/></clipPath></defs></svg>
